X:526
T: Der Kirchenruber Peter Paulus (229c), S.494
N: T0414
O: Luxemburg
S: Singendes Volk, Esch-Alzette, 1937 posth.]
N: Heffingen, fff Anna Kimmel, 1933, aufgeschrieben
R: Berufslied]
M: 3/4
L: 1/16
K: G
D2G2 | G4FFA2G2E2 | E2D2z2
D2D2G2 | G4FFA2G2G2 | E2D2z2
G2F2G2 | A2F2D2D2G2B2 | B4A2
A2A2Bd | c4B4cAA2 | G4z4

